storage/app/icons/phosphoricons/thin/jar-thin.svg

<svg xmlns="http://www.w3.org/2000/svg" fill="currentColor" viewBox="0 0 256 256"><path d="M180 52.23V32a12 12 0 0 0-12-12H88a12 12 0 0 0-12 12v20.23A36 36 0 0 0 44 88v112a36 36 0 0 0 36 36h96a36 36 0 0 0 36-36V88a36 36 0 0 0-32-35.77M172 32v20h-24V28h20a4 4 0 0 1 4 4m-56 20V28h24v24ZM88 28h20v24H84V32a4 4 0 0 1 4-4m116 172a28 28 0 0 1-28 28H80a28 28 0 0 1-28-28V88a28 28 0 0 1 28-28h96a28 28 0 0 1 28 28Z"/></svg>

<svg xmlns="http://www.w3.org/2000/svg" viewBox="0 0 256 256" fill="currentColor"><path d="M180,52.23V32a12,12,0,0,0-12-12H88A12,12,0,0,0,76,32V52.23A36,36,0,0,0,44,88V200a36,36,0,0,0,36,36h96a36,36,0,0,0,36-36V88A36,36,0,0,0,180,52.23ZM172,32V52H148V28h20A4,4,0,0,1,172,32ZM116,52V28h24V52ZM88,28h20V52H84V32A4,4,0,0,1,88,28ZM204,200a28,28,0,0,1-28,28H80a28,28,0,0,1-28-28V88A28,28,0,0,1,80,60h96a28,28,0,0,1,28,28Z"/></svg>
